X: 3115
T: HAWTHORN HEDGES
Q:"Strathspey."
R: Strathspey.
%R:strathspey
B: James Kerr "Merry Melodies" v.3 p.14 #115
Z: 2016 John Chambers <jc:trillian.mit.edu>
M: C
L: 1/16
K: A
|:\
vc4 uB3uA (EA3) A4 | c3cB3A (cde2) (fga2) |\
c4 B3A (EA3) A4 | FB3 B3c dcBA GB3 ::\
(ce3) e3f (fe)dc e4 |
(ce3) (e2fg) a3gf3e |\
[1 (ce3) e3f (fe)dc e4 | d3Bc3A GB3 Bd3 :|\
[2 a3gf3e d3cB3A | FB3 B3c dcBA GB3 |]

%%sep 1 1 500
%%sep 1 1 500

